X: 37
T: The Man Who Shot the Windmill
C:Phil Cunningham
M:C
L:1/8
K:D
F2 ED FA (3AAA| Adfe dBBA| F2 ED FABc| dBAF E3 F|
D2 B,A, B,E (3EEE| FEDE FAfe| dBBA (3BBB bf| afec dBBA :|
|: FAAF A2 FA| Adfe dBBA| FAAF A2 (3ABc|dBAF E3 F|D2 B,A, B,E (3EEE|
FEDE FAfe| dBBA (3BBB bf|1 afec dBBA :|2 afec dB B z||

%%sep 2 1 500

